X: 42
T:Munster Hop
% Nottingham Music Database
S:Sharon Shannon/6 arr Eric
M:4/4
L:1/4
K:G
|:g/2e/2|"G"d/2B/2g/2e/2 d/2B/2A/2G/2|"Am"B/2A/2A/2B/2 Ad/2e/2|\
"D"d3/2e/2 d/2B/2A/2G/2|"G"B/2G/2G/2G/2 Gg/2e/2|
"G"d/2B/2g/2e/2 d/2B/2A/2G/2|"Am"B/2A/2A/2B/2 AE/2D/2|"C"C/2E/2A/2B/2 A3/2B/2|\
"D7"AG "G"G::
g/2a/2|"Em"b2 b/2a/2g/2b/2|"C"ag g2|"C"eg/2e/2 "G/b"d/2e/2g/2a/2|\
"Am"ba "D"ag/2a/2|
"Em"b2 b/2a/2g/2b/2|"C"ag g2|"C"eg/2e/2 "G/b"d/2B/2A/2d/2|"D/a"BG "G"G:|


